src/assets/icons/carouselHome.svg

<svg width="60" height="60" viewBox="0 0 60 60" fill="none" xmlns="http://www.w3.org/2000/svg">
<g clip-path="url(#clip0)">
<path d="M25.3129 24.1409C21.9077 24.1409 19.4536 26.9904 19.4536 30.4502C19.4536 34.2529 22.3803 36.7465 26.8106 40.521C27.5826 41.1788 28.381 41.8591 29.2288 42.6007C29.4497 42.794 29.725 42.8906 30.0004 42.8906C30.2758 42.8906 30.551 42.7941 30.7719 42.6007C31.6198 41.8591 32.4182 41.1788 33.1902 40.521C37.6204 36.7465 40.5471 34.2529 40.5471 30.4502C40.5471 26.99 38.0924 24.1409 34.6878 24.1409C32.36 24.1409 30.8836 25.47 30.0004 26.7535C29.1173 25.47 27.6407 24.1409 25.3129 24.1409ZM31.1305 29.7243C31.1394 29.692 32.0496 26.4846 34.6878 26.4846C36.692 26.4846 38.2034 28.1894 38.2034 30.4502C38.2034 33.1706 35.7442 35.2659 31.6702 38.7371C31.1296 39.1978 30.5762 39.6692 30.0004 40.1664C29.4245 39.6692 28.8712 39.1976 28.3306 38.7371C24.2565 35.2659 21.7973 33.1706 21.7973 30.4502C21.7973 28.1894 23.3087 26.4846 25.3129 26.4846C27.9175 26.4846 28.8298 29.5818 28.8712 29.7277C29.0119 30.2349 29.4737 30.5861 30.0004 30.5861C30.5282 30.5861 30.9908 30.2333 31.1305 29.7243Z" fill="white"/>
<path d="M14.7662 13.1252C15.4134 13.1252 15.938 12.6006 15.938 11.9534C15.938 11.3062 15.4134 10.7815 14.7662 10.7815C14.119 10.7815 13.5943 11.3062 13.5943 11.9534C13.5943 12.6006 14.119 13.1252 14.7662 13.1252Z" fill="white"/>
<path d="M52.4743 27.8713C53.296 28.4975 54.2775 28.8283 55.3126 28.8283C57.8972 28.8283 60 26.7255 60 24.1408C60 22.6644 59.3258 21.3046 58.1548 20.4133L52.2657 15.8874V1.17235C52.2657 0.525248 51.7411 0.000488281 51.0939 0.000488281H44.0627C43.4155 0.000488281 42.8908 0.525248 42.8908 1.17235V8.68269L32.8386 0.95743C32.0169 0.331305 31.0355 0.000488281 30.0004 0.000488281C28.9653 0.000488281 27.9838 0.331305 27.1581 0.96036L18.2357 7.81751C17.7225 8.21184 17.6262 8.94765 18.0207 9.46069C18.415 9.97373 19.1508 10.0702 19.664 9.67573L28.5824 2.82163C28.9924 2.50933 29.4827 2.34421 30.0004 2.34421C30.518 2.34421 31.0083 2.50933 31.4144 2.8187L56.731 22.2749C57.319 22.7224 57.6563 23.4026 57.6563 24.1408C57.6563 25.4332 56.6049 26.4846 55.3126 26.4846C54.7949 26.4846 54.3046 26.3194 53.8988 26.0103C52.5861 25.0007 31.7737 8.9937 30.7148 8.17926C30.3086 7.86672 29.7463 7.85454 29.3268 8.14926C29.2737 8.18641 6.1081 26.0055 6.10564 26.0075C5.63584 26.3658 5.04851 26.5307 4.44945 26.4725C3.28907 26.3601 2.65955 25.8144 2.40807 24.7025C2.19737 23.771 2.52772 22.8405 3.27407 22.2716L11.3047 16.1C11.8179 15.7057 11.9142 14.9698 11.5198 14.4568C11.1253 13.9438 10.3895 13.8473 9.87646 14.2418L1.84968 20.4104C0.368445 21.5396 -0.293422 23.3824 0.122237 25.2196C0.597661 27.3217 2.05428 28.5952 4.2227 28.8051C5.41155 28.9214 6.58482 28.5896 7.52699 27.871L7.52524 27.8688C7.57504 27.8321 7.64301 27.7809 7.73512 27.7106V43.7884C5.05378 44.4315 2.98029 46.6131 2.48518 49.3756C0.939259 50.4687 0.000832292 52.2445 0.000832292 54.1404C0.000832292 57.3712 2.62932 59.9997 5.86014 59.9997H54.1408C57.3716 59.9997 60.0001 57.3712 60.0001 54.1404C60.0001 52.2445 59.0617 50.4687 57.5158 49.3756C57.0205 46.612 54.9456 44.4296 52.2658 43.7879V27.7109L52.4743 27.8713ZM45.2346 2.34421H49.922V14.0863L45.2346 10.4838V2.34421ZM18.7505 57.6561H5.86002C3.92153 57.6561 2.34444 56.079 2.34444 54.1405C2.34444 52.8883 3.03525 51.7209 4.14723 51.0936C4.48109 50.9053 4.70164 50.5656 4.73808 50.1839C4.96718 47.7777 6.95923 45.9374 9.37572 45.9374C10.8847 45.9374 12.3126 46.6806 13.1951 47.9253C13.4716 48.3153 13.9573 48.4983 14.4226 48.3875C14.7229 48.316 14.9887 48.2812 15.235 48.2812C17.1275 48.2812 18.7274 49.8011 18.7504 51.7554C18.6505 52.4599 19.0272 52.9417 19.5158 53.1119C20.4229 53.4279 21.0943 54.2854 21.0943 55.3122C21.0942 56.6047 20.0428 57.6561 18.7505 57.6561ZM38.9318 51.2525C38.2075 51.6623 37.6096 52.2533 37.1944 52.9687H22.806C22.3905 52.2531 21.7929 51.6622 21.0689 51.2525C21.0492 51.0415 21.018 50.8321 20.9759 50.6238H39.025C38.9828 50.832 38.9516 51.0415 38.9318 51.2525ZM22.8089 57.6561C23.2088 56.9662 23.4379 56.1655 23.4379 55.3123H36.5628C36.5628 56.1655 36.792 56.9662 37.1918 57.6561H22.8089ZM55.2628 50.1839C55.2991 50.5656 55.5197 50.9052 55.8536 51.0936C56.9656 51.7209 57.6564 52.8883 57.6564 54.1405C57.6564 56.079 56.0793 57.6561 54.1408 57.6561H41.2503C39.958 57.6561 38.9066 56.6047 38.9066 55.3123C38.9066 54.2844 39.5793 53.4275 40.4851 53.112C40.978 52.9404 41.3498 52.4559 41.2506 51.7555C41.2735 49.8061 42.8689 48.2813 44.7659 48.2813C45.0122 48.2813 45.278 48.3161 45.5784 48.3876C46.0433 48.4982 46.5293 48.3155 46.8059 47.9254C47.6884 46.6808 49.1162 45.9376 50.6252 45.9376C53.0408 45.9375 55.0334 47.7756 55.2628 50.1839ZM49.922 43.6306C48.1707 43.8091 46.5405 44.6471 45.3674 45.9726C45.1627 45.9492 44.963 45.9374 44.7658 45.9374C42.917 45.9374 41.1801 46.821 40.0808 48.2812H19.92C18.8212 46.8214 17.084 45.9374 15.2349 45.9374C15.0376 45.9374 14.8379 45.9492 14.6333 45.9726C13.4602 44.647 11.8302 43.8091 10.0787 43.6306V25.9087C11.7798 24.6003 28.0429 12.0916 30.0002 10.5865L49.922 25.9085V43.6306Z" fill="white"/>
</g>
<defs>
<clipPath id="clip0">
<rect width="60" height="60" fill="white"/>
</clipPath>
</defs>
</svg>

<svg xmlns="http://www.w3.org/2000/svg" width="60" height="60" fill="none"><g fill="#fff" clip-path="url(#a)"><path d="M25.313 24.14c-3.405 0-5.86 2.85-5.86 6.31 0 3.803 2.927 6.296 7.358 10.071.772.658 1.57 1.338 2.418 2.08a1.169 1.169 0 0 0 1.543 0c.848-.742 1.646-1.422 2.418-2.08 4.43-3.775 7.357-6.268 7.357-10.07 0-3.461-2.455-6.31-5.86-6.31-2.327 0-3.803 1.329-4.687 2.613-.883-1.284-2.36-2.613-4.687-2.613Zm5.818 5.584c.008-.032.919-3.24 3.557-3.24 2.004 0 3.515 1.705 3.515 3.966 0 2.72-2.459 4.816-6.533 8.287-.54.46-1.094.932-1.67 1.43-.576-.498-1.129-.97-1.67-1.43-4.073-3.471-6.533-5.566-6.533-8.287 0-2.26 1.512-3.965 3.516-3.965 2.605 0 3.517 3.097 3.558 3.243a1.172 1.172 0 0 0 2.26-.004ZM14.766 13.125a1.172 1.172 0 1 0 0-2.343 1.172 1.172 0 0 0 0 2.343Z"/><path d="M52.474 27.871a4.645 4.645 0 0 0 2.839.957A4.693 4.693 0 0 0 60 24.141a4.65 4.65 0 0 0-1.845-3.728l-5.89-4.526V1.172C52.266.525 51.742 0 51.095 0h-7.031c-.648 0-1.172.525-1.172 1.172v7.51L32.839.958A4.645 4.645 0 0 0 30 0a4.65 4.65 0 0 0-2.842.96l-8.922 6.858a1.172 1.172 0 1 0 1.428 1.858l8.918-6.854c.41-.313.9-.478 1.418-.478.518 0 1.008.165 1.414.475l25.317 19.456c.588.447.925 1.128.925 1.866a2.346 2.346 0 0 1-3.757 1.87L30.715 8.178a1.172 1.172 0 0 0-1.388-.03c-.053.037-23.219 17.857-23.221 17.859a2.344 2.344 0 0 1-1.657.465c-1.16-.113-1.79-.659-2.04-1.77-.212-.932.119-1.863.865-2.431l8.03-6.172a1.172 1.172 0 1 0-1.428-1.858L1.85 20.41C.368 21.54-.293 23.382.122 25.22c.476 2.102 1.932 3.375 4.1 3.585a4.678 4.678 0 0 0 3.305-.934l-.002-.002.21-.158v16.077a7.006 7.006 0 0 0-5.25 5.588A5.852 5.852 0 0 0 .001 54.14C0 57.371 2.629 60 5.86 60h48.28C57.37 60 60 57.37 60 54.14a5.852 5.852 0 0 0-2.485-4.764 7.006 7.006 0 0 0-5.25-5.588V27.71l.208.16Zm-7.24-25.527h4.688v11.742l-4.687-3.602v-8.14ZM18.75 57.656H5.86a3.52 3.52 0 0 1-3.516-3.515c0-1.253.691-2.42 1.803-3.047.334-.189.555-.528.591-.91.23-2.406 2.221-4.247 4.638-4.247 1.509 0 2.937.744 3.82 1.988.276.39.761.573 1.227.463.3-.072.566-.107.812-.107a3.518 3.518 0 0 1 3.515 3.474c-.1.705.277 1.187.766 1.357a2.339 2.339 0 0 1 1.578 2.2 2.347 2.347 0 0 1-2.344 2.344Zm20.182-6.404c-.724.41-1.322 1.001-1.738 1.717H22.806a4.657 4.657 0 0 0-1.737-1.717c-.02-.21-.051-.42-.093-.628h18.049a5.97 5.97 0 0 0-.093.628Zm-16.123 6.404c.4-.69.629-1.49.629-2.344h13.125c0 .854.229 1.654.629 2.344H22.809Zm32.454-7.472c.036.382.257.721.59.91a3.515 3.515 0 0 1 1.803 3.047 3.52 3.52 0 0 1-3.515 3.515H41.25a2.346 2.346 0 0 1-2.344-2.344c0-1.028.672-1.884 1.578-2.2.493-.172.865-.656.766-1.357a3.518 3.518 0 0 1 3.515-3.474c.246 0 .512.035.812.107.465.11.951-.072 1.228-.463a4.696 4.696 0 0 1 3.82-1.987c2.415 0 4.407 1.838 4.637 4.246Zm-5.341-6.553a7.048 7.048 0 0 0-4.555 2.342 5.285 5.285 0 0 0-.601-.036 5.881 5.881 0 0 0-4.685 2.344H19.92a5.881 5.881 0 0 0-4.685-2.344c-.197 0-.397.012-.602.036a7.047 7.047 0 0 0-4.554-2.342V25.909C11.779 24.6 28.043 12.092 30 10.587l19.922 15.322V43.63Z"/></g><defs><clipPath id="a"><path fill="#fff" d="M0 0h60v60H0z"/></clipPath></defs></svg>
